!!!!SEGMENT: 068-1-Sam-001.krn
!!!COM: Chopin, Fryderyk
!!!OTL: Mazurka No. 5.
!!!OPS: Op. 68
!!!NIFC-rismID: 
!!!NIFC-shelfmark: PL-Wbfc 1106/n
!!!OMD: Vivace.
!!!OMD: [quarter]=168.
!!!system-decoration: {(s1,s2)}
**kern	**kern	**fing	**dynam
*part1	*part1	*part1	*part1
*	*I"Nº. 5.	*	*
*staff2	*staff1	*	*
*clefF4	*clefG2	*	*
*k[]	*k[]	*	*
*M3/4	*M3/4	*	*
*MM168	*MM168	*	*
*>[A,B,B1,B,B2,C,D]	*>[A,B,B1,B,B2,C,D]	*>[A,B,B1,B,B2,C,D]	*>[A,B,B1,B,B2,C,D]
=1	=1	=1	=1
*>A	*>A	*>A	*>A
*ped	*	*	*
!	!LO:TX:a:t=P:w źródle '[quarter]=168' po lewej stronie akolady:problem	!	!
!LO:TX:b:t=P:znak pedalizacji przed nutą:problem	!	!	!
!	!	!	!LO:DY:rj
!	!LO:TX:t=P:nie wyświetla się "Vivace." (OMD):problem	!	!
8CL 8CC	8eL 8c 8G<	.	f <
8CJ 8CC	8fJ 8d 8G<	.	.
4C 4CC	4g 4e 4G<	.	[
*Xped	*	*	*
.	.	.	.
!	!	!	!LO:DY:rj
4C 4CC	4a 4f 4G<	.	sf
=2	=2	=2	=2
*ped	*	*	*
8CL 8CC	8gL 8e 8G<	.	.
8CJ 8CC	8eJ 8c 8G<	.	.
4C 4CC	4c< 4G<	.	.
*Xped	*	*	*
.	.	.	.
!	!	!	!LO:DY:rj
4C 4CC	4d< 4G<	.	sf
=3	=3	=3	=3
8CL 8CC	8eL 8c 8G<	.	.
8CJ 8CC	8fJ 8d 8G<	.	.
4C 4CC	4g 4e 4G<	.	.
!	!	!	!LO:DY:rj
4C 4FF	4a 4f 4c 4A<	.	sf
=4	=4	=4	=4
8CL 8CC	8gL 8e 8c 8G<	.	.
8CJ 8CC	8eJ 8c 8G<	.	.
4C 4CC	4g 4e 4G<	.	.
4r	(>8bL\	.	.
.	8ccJ	.	.
=5	=5	=5	=5
!	!	!	!LO:DY:rj
4d 4c 4A 4F#X	8ddL)	.	p
.	8ddJ	.	.
.	8qee/	.	.
*ped	*	*	*
4d 4B 4G 4Fn	4dd^<	.	.
4d 4B 4G 4F	(>8gL>\	.	.
*Xped	*	*	*
.	8bJ	.	.
!!LO:LB:g=original
=6	=6	=6	=6
*ped	*	*	*
4c 4G 4E	8ccL	.	.
.	8dd	.	<
4e 4G 4C	8ee	.	.
.	8ff	.	.
4r	8gg	.	.
*Xped	*	*	*
.	8gg#XJ)	.	[
=7	=7	=7	=7
*ped	*	*	*
4GG	8aaL	.	.
.	8aaJ	.	.
.	8qbb/	.	.
4f 4B 4G	4aa^<	.	.
4f 4B 4G	(>8ggL	.	.
*Xped	*	*	*
.	8ddJ)	.	.
=8	=8	=8	=8
*^	*	*	*
4ryy	2C/	8ffL	.	.
.	.	8ffJ	.	.
.	.	8qgg/	.	.
4f 4A\	.	4ff^<	.	.
4e 4G\	4ryy	4ee	.	.
*v	*v	*	*	*
=9	=9	=9	=9
.	8qa/	.	.
4d 4c 4A 4F#X	8ddL	.	.
.	8ddJ	.	.
.	8qee/	.	.
*ped	*	*	*
4d 4B 4G 4Fn	4dd^<	.	.
4d 4B 4G 4F	(>8gL>\	.	.
*Xped	*	*	*
.	8bJ	.	.
=10	=10	=10	=10
*ped	*	*	*
4c 4G 4E	8ccL	3	.
.	8dd	1	.
4e 4G 4C	8ee	2	.
.	8ff	1	.
4r	8gg	.	.
*Xped	*	*	*
.	8cccJ)	.	.
=11	=11	=11	=11
*ped	*	*	*
4GG	(>8.bbL	.	.
.	16aaT>k	.	.
4f 4d 4G	8ff	.	.
.	8dd	.	.
4f 4d 4G	8b	.	.
*Xped	*	*	*
.	8gJ)	.	.
!!LO:LB:g=original
=12	=12	=12	=12
*	*^	*	*
*ped	*	*	*	*
4C	12ccL	8eL	.	.
.	12dd	.	.	.
.	.	8gJ	.	.
.	12eeJ	.	.	.
4c 4G 4C	4cc 4e	4ryy	.	.
4r	(>8bL\	4ryy	.	.
*Xped	*	*	*	*
.	8ccJ	.	.	.
*	*v	*v	*	*
=13	=13	=13	=13
4d 4c 4A 4F#X	8ddL)	.	.
.	8ddJ	.	.
.	8qee/	.	.
*ped	*	*	*
4d 4B 4G 4Fn	4dd^<	.	.
4d 4B 4G 4F	(>8gL>\	.	.
*Xped	*	*	*
.	8bJ	.	.
=14	=14	=14	=14
*ped	*	*	*
4c 4G 4E	8ccL	.	.
.	8dd	.	<
4e 4G 4C	8ee	.	.
.	8ff	.	.
4r	8gg	.	.
*Xped	*	*	*
.	8gg#XJ)	.	[
=15	=15	=15	=15
*ped	*	*	*
4GG	8aaL	.	.
.	8aaJ	.	.
.	8qbb/	.	.
4f 4B 4G	4aa^<	.	.
4f 4B 4G	(>8ggL	.	.
*Xped	*	*	*
.	8ddJ)	.	.
=16	=16	=16	=16
*^	*	*	*
4ryy	2C/	8ffL	.	.
.	.	8ffJ	.	.
.	.	8qgg/	.	.
4f 4A\	.	4ff^<	.	.
4e 4G\	4ryy	4ee	.	.
*v	*v	*	*	*
=17	=17	=17	=17
.	8qa/	.	.
4d 4c 4A 4F#X	8ddL	.	.
.	8ddJ	.	.
.	8qee/	.	.
*ped	*	*	*
4d 4B 4G 4Fn	4dd^<	.	.
4d 4B 4G 4F	(>8gL>\	.	.
*Xped	*	*	*
.	8bJ	.	.
!!LO:LB:g=original
=18	=18	=18	=18
*ped	*	*	*
4c 4G 4E	8ccL	3	.
.	8dd	1	.
4e 4G 4C	8ee	2	.
.	8ff	1	.
4r	8gg	.	.
*Xped	*	*	*
.	8cccJ)	.	.
=19	=19	=19	=19
*ped	*	*	*
4GG	(>8.bbL	.	.
.	16aaT>k	.	.
4f 4d 4G	8ff	.	.
.	8dd	.	.
4f 4d 4G	8b	.	.
*Xped	*	*	*
.	8gJ)	.	.
=20	=20	=20	=20
*	*^	*	*
*ped	*	*	*	*
4C	(>12ccL	8eL	.	.
.	12dd	.	.	.
.	.	8gJ	.	.
.	12eeJ)	.	.	.
4c 4G 4C	4cc 4e	4ryy	.	.
*Xped	*	*	*	*
.	.	.	.	.
4r	8bL	4ryy	.	.
.	8ccJ	.	.	.
*	*v	*v	*	*
=21!|:	=21!|:	=21!|:	=21!|:
*>B	*>B	*>B	*>B
*ped	*	*	*
!	!	!	!LO:DY:rj
8.cL 8.A 8.D	8.ddL 8.f#X 8.d	.	f
16cJk 16A 16D	16ddJk 16f# 16d	.	.
*Xped	*	*	*
.	.	.	.
4B 4G	4b 4g	.	.
*ped	*	*	*
!LO:TX:b:t=P:znak pedalizacji przed nutą:problem	!	!	!LO:DY:rj
4GG 4GGG	4gg 4dd 4b 4g	.	fz
*Xped	*	*	*
.	.	.	.
=22	=22	=22	=22
*	*^	*	*
*ped	*	*	*	*
8.cL 8.A 8.D	8.ddL 8.a 8.f#X 8.d	4ryy	.	.
16cJk 16A 16D	16ddJk 16a 16f# 16d	.	.	.
*Xped	*	*	*	*
.	.	.	.	.
4B 4G	4g	4ryy	.	.
*ped	*	*	*	*
!	!	!	!	!LO:DY:rj
4GG 4GGG	8bL 8g	4d	.	fz
.	8ccJ 8a	.	.	.
*Xped	*	*	*	*
.	.	.	.	.
*	*v	*v	*	*
=23	=23	=23	=23
*ped	*	*	*
8.cL 8.A 8.D	8.ddL 8.f#X 8.d	.	.
16cJk 16A 16D	16ddJk 16f# 16d	.	.
*Xped	*	*	*
.	.	.	.
4B 4G	4b 4g	.	.
*ped	*	*	*
4GG 4GGG	4gg 4dd 4b 4g	.	fz
*Xped	*	*	*
.	.	.	.
!!LO:LB:g=original
=24	=24	=24	=24
*	*^	*	*
*ped	*	*	*	*
8.cL 8.A 8.D	8.ddL 8.f#X 8.d	4ryy	.	.
*Xped	*	*	*	*
16cJk 16A 16D	16ddJk 16f# 16d	.	.	.
4B 4G	4dd 4b 4g 4d	4ryy	.	.
.	8qee/	.	.	.
4d 4c 4F#X	8ddL	4a^<	.	.
.	8cc#XJ	.	.	p
=25	=25	=25	=25	=25
4d 4B 4Fn	8eeL	4a-X	.	.
.	8ddJ	.	.	.
4d 4B 4F	4g^<	4ryy	.	.
4d 4B 4G 4F	(>8anL>\	4ryy	.	.
.	8bJ	.	.	.
*	*v	*v	*	*
=26	=26	=26	=26
*ped	*	*	*
4c 4G 4E	8ccL	.	.
.	8dd	.	<
4e 4G 4C	8ee	.	.
.	8ff	.	.
4r	8gg	.	.
*Xped	*	*	*
.	8gg#XJ)	.	[
=27	=27	=27	=27
*ped	*	*	*
4GG	8aaL	.	.
.	8aaJ	.	.
.	8qbb/	.	.
4f 4B 4G	4aa^<	.	.
4f 4B 4G	(>8ggL	.	.
*Xped	*	*	*
.	8ddJ)	.	.
=28	=28	=28	=28
*^	*	*	*
2C/	4ryy	8ffL	.	.
.	.	8ffJ	.	.
.	.	8qgg/	.	.
.	4f 4A\	4ff^<	.	.
4ryy	4e 4G\	4ee	.	.
*v	*v	*	*	*
=29	=29	=29	=29
.	8qa/	.	.
4d 4c 4A 4F#X	8ddL	.	.
.	8ddJ	.	.
.	8qee/	.	.
*ped	*	*	*
4d 4B 4G 4Fn	4dd^<	.	.
4d 4B 4G 4F	(>8gL>\	.	.
*Xped	*	*	*
.	8bJ	.	.
!!LO:LB:g=original
=30	=30	=30	=30
*ped	*	*	*
4c 4G 4E	8ccL	.	.
.	8dd	.	.
4e 4G 4C	8ee	.	.
.	8ff	.	.
4r	8gg	.	.
*Xped	*	*	*
.	8cccJ)	.	.
=31	=31	=31	=31
*ped	*	*	*
4GG	(>8.bbL	.	.
.	16aaT>k	.	.
4f 4d 4G	8ff	.	.
.	8dd	.	.
4f 4d 4G	8b	.	.
*Xped	*	*	*
.	8gJ)	.	.
=32	=32	=32	=32
!!LO:TX:a:B:t=1ᵃ.
*>B1	*>B1	*>B1	*>B1
*	*^	*	*
*ped	*	*	*	*
4C	(>12ccL	8eL	.	.
.	12dd	.	.	.
.	.	8gJ	.	.
.	12eeJ)	.	.	.
4c 4G 4C	4cc 4e	4ryy	.	.
4r	8bL	4ryy	.	.
*Xped	*	*	*	*
.	8ccJ	.	.	.
=33:|!	=33:|!	=33:|!	=33:|!	=33:|!
!!LO:TX:a:B:t=2ᵃ.
*>B2	*>B2	*>B2	*>B2	*>B2
*ped	*	*	*	*
4C	(>12ccL	8eL	.	.
.	12dd	.	.	.
.	.	8gJ	.	.
.	12eeJ)	.	.	.
4c 4G 4C	4cc 4e	4ryy	.	.
*Xped	*	*	*	*
.	.	.	.	.
4r	8r	4ryy	.	.
.	(>8cc	.	.	.
*	*v	*v	*	*
=34||	=34||	=34||	=34||
*>C	*>C	*>C	*>C
*k[b-]	*k[b-]	*	*
*ped	*	*	*
4C	8ccc'>)	.	p
.	8r	.	.
4e 4c 4G	(>4.gg 4.b-	.	.
4e 4c 4G	.	.	.
*Xped	*	*	*
.	8aa 8cc)	.	.
=35	=35	=35	=35
*ped	*	*	*
4F	8.ffL 8.a	.	.
.	16ccJk	.	.
4f 4c 4A	4.ccc 4.cc	.	.
4f 4c 4A	.	.	.
*Xped	*	*	*
.	8ff#X 8dd#X	.	.
!!LO:PB:g=original
=36	=36	=36	=36
4C	(>8ggL 8ee	.	<
.	8aaJ 8ff	.	[
*clefG2	*	*	*
4cc 4e 4c	4.bb- 4.gg)	.	.
4b-X 4e 4c	.	.	.
.	(>8bbn 8gg#X	.	.
*clefF4	*	*	*
=37	=37	=37	=37
*ped	*	*	*
4F	8ddd'>L)	.	.
.	16rff	.	.
.	(>16cccJk 16gg#X	.	.
*clefG2	*	*	*
4a 4c	4fff 4aa)	.	.
4f 4A	(>4cc	.	.
*Xped	*	*	*
.	.	.	.
*clefF4	*	*	*
=38	=38	=38	=38
*ped	*	*	*
4C	8ccc)	.	.
.	8r	.	.
4e 4c 4G	(>4.gg 4.b-	.	.
4e 4c 4G	.	.	.
*Xped	*	*	*
.	8aa 8cc)	.	.
=39	=39	=39	=39
*^	*	*	*
4f	2.F	(>8ffL 8a	.	.
.	.	8ccJ	.	.
4f 4A	.	4.ff 4.a)	.	>
4f 4d	.	.	.	.
.	.	8ee 8cc	.	]
*v	*v	*	*	*
=40	=40	=40	=40
*	*^	*	*
4f 4d 4G	(>8ddL	4cc	.	<
.	8eeJ	.	.	.
4f 4d 4G	8ffT>L	4bn	.	.
.	8eeJ	.	.	.
4f 4d 4G	8ffL	4b	4	.
.	8ff#XJ)	.	3	[
=41	=41	=41	=41	=41
4C/	8aaL	4b-X	.	>
.	8ggJ	.	.	.
4e 4c 4G	4ee	4b-	.	.
4e 4c 4G	4dd	4b-	.	]
.	(>8qcc/	.	.	.
*	*v	*v	*	*
=42	=42	=42	=42
4C/	8ccc'>)	.	.
.	8r	.	.
4e 4c 4G	(>4.gg 4.b-	.	.
4e 4c 4G	.	.	.
.	8aa 8cc)	.	.
!!LO:LB:g=original
=43	=43	=43	=43
*ped	*	*	*
4F	8.ffL 8.a	.	.
.	16ccJk	.	.
4f 4c 4A	4.ccc 4.cc	.	.
4f 4c 4A	.	.	.
*Xped	*	*	*
.	(>8ff#X 8dd#X	.	.
=44	=44	=44	=44
4C	8ggL 8ee	.	.
.	8aaJ 8ff	.	.
*clefG2	*	*	*
4cc 4e 4c	4.bb- 4.gg)	.	.
4b-X 4e 4c	.	.	.
.	(>8bbn 8gg#X	.	.
*clefF4	*	*	*
=45	=45	=45	=45
*ped	*	*	*
4F	8ddd'>L)	.	.
.	16rff	.	.
.	(>16cccJk 16gg#X	.	.
*clefG2	*	*	*
4a 4c	4fff 4aa)	.	.
4f 4A	(>4cc	.	.
*Xped	*	*	*
.	.	.	.
*clefF4	*	*	*
=46	=46	=46	=46
*ped	*	*	*
4C'	8ccc'>)	.	.
.	8r	.	.
4e 4c 4G	(>4.gg 4.b-	.	.
4e 4c 4G	.	.	.
*Xped	*	*	*
.	8aa 8cc)	.	.
=47	=47	=47	=47
*	*^	*	*
4f 4c 4A 4F	4ff 4a	4ryy	.	f
2B- 2G 2D 2BB-	(>4.aa	2dd 2g	.	sf
.	8gg)	.	.	.
=48	=48	=48	=48	=48
*ped	*	*	*	*
4C	8ccL	4b- 4e	.	<
.	8dd-XJ	.	.	.
4c 4G 4C	8ccL	4b- 4e	.	.
.	8ddnJ	.	.	.
4c 4G 4C	8ccL	4b- 4e	.	.
*Xped	*	*	*	*
.	8eeJ	.	.	.
*	*v	*v	*	*
=49	=49	=49	=49
*ped	*	*	*
4c 4A 4F	4ff 4a 4f	.	.
4F 4FF	4fff 4aa 4ff	.	sf
*Xped	*	*	*
4r	4r	.	.
!!LO:LB:g=original
=50||	=50||	=50||	=50||
*>D	*>D	*	*
*k[]	*k[]	*	*
*ped	*	*	*
!	!	!	!LO:DY:rj
8CL 8CC	8eL 8c 8G<	.	f
.	.	.	<
8CJ 8CC	8fJ 8d 8G<	.	.
4C 4CC	4g 4e 4G<	.	.
*Xped	*	*	*
.	.	.	.
!	!	!	!LO:DY:a
4C 4CC	4a 4f 4G<	.	[ sf
=51	=51	=51	=51
*ped	*	*	*
8CL 8CC	8gL 8e 8G<	.	.
8CJ 8CC	8eJ 8c 8G<	.	.
4C 4CC	4c< 4G<	.	.
*Xped	*	*	*
.	.	.	.
4C 4CC	4d< 4G<	.	sf
=52	=52	=52	=52
8CL 8CC	8eL 8c 8G<	.	.
8CJ 8CC	8fJ 8d 8G<	.	.
4C 4CC	4g 4e 4G<	.	.
!	!	!	!LO:DY:rj
4C 4FF	4a 4f 4c 4A<	.	sf
=53	=53	=53	=53
8CL 8CC	8gL 8e 8c 8G<	.	.
8CJ 8CC	8eJ 8c 8G<	.	.
4C 4CC	4g 4e 4G<	.	.
4r	(>8bL</	.	.
.	8ccJ	.	.
=54	=54	=54	=54
!	!	!	!LO:DY:rj
4d 4c 4A 4F#X	8ddL)	.	p
.	8ddJ	.	.
.	8qee/	.	.
*ped	*	*	*
4d 4B 4G 4Fn	4dd^<	.	.
4d 4B 4G 4F	(>8gL>\	.	.
*Xped	*	*	*
.	8bJ	.	.
=55	=55	=55	=55
*ped	*	*	*
4c 4G 4E	8ccL	.	<
.	8dd	.	.
4e 4G 4C	8ee	.	.
.	8ff	.	.
4r	8gg	.	.
*Xped	*	*	*
.	.	.	.
.	8gg#XJ)	.	.
.	.	.	[
!!LO:LB:g=original
=56	=56	=56	=56
*ped	*	*	*
4GG	8aaL	.	.
.	8aaJ	.	.
.	8qbb/	.	.
4f 4B 4G	4aa^<	.	.
4f 4B 4G	(>8ggL	.	.
*Xped	*	*	*
.	8ddJ)	.	.
=57	=57	=57	=57
*^	*	*	*
2C/	4ryy	8ffL	.	.
.	.	8ffJ	.	.
.	.	8qgg/	.	.
.	4f 4A\	4ff^<	.	.
4ryy	4e 4G\	4ee	.	.
*v	*v	*	*	*
=58	=58	=58	=58
.	8qa/	.	.
4d 4c 4A 4F#X	8ddL	.	.
.	8ddJ	.	.
.	8qee/	.	.
*ped	*	*	*
4d 4B 4G 4Fn	4dd^<	.	.
4d 4B 4G 4F	(>8gL>\	.	.
*Xped	*	*	*
.	8bJ	.	.
=59	=59	=59	=59
*ped	*	*	*
4c 4G 4E	8ccL	3	.
.	8dd	1	.
4e 4G 4C	8ee	2	.
.	8ff	1	.
4r	8gg	.	.
*Xped	*	*	*
.	8cccJ)	.	.
=60	=60	=60	=60
*ped	*	*	*
4GG	(>8.bbL	.	.
.	16aaT>k	.	.
4f 4d 4G	8ff	.	.
.	8dd	.	.
4f 4d 4G	8b	.	.
*Xped	*	*	*
.	8gJ)	.	.
=61	=61	=61	=61
*	*^	*	*
*ped	*	*	*	*
4C	(>12ccL	8eL	.	.
.	12dd	.	.	.
.	.	8gJ	.	.
.	12eeJ)	.	.	.
4c 4G 4C	4cc/ 4e/	4ryy	.	.
*Xped	*	*	*	*
.	.	.	.	.
4r	(>8bL\	4ryy	.	.
.	8ccJ	.	.	.
*	*v	*v	*	*
!!LO:LB:g=original
=62	=62	=62	=62
*ped	*	*	*
!	!	!	!LO:DY:rj
8.cL 8.A 8.D	8.ddL 8.f#X 8.d	.	f
16cJk 16A 16D	16ddJk 16f# 16d	.	.
*Xped	*	*	*
.	.	.	.
4B 4G	4b 4g	.	.
*ped	*	*	*
!LO:TX:b:t=P:znak pedalizacji przed nutą:problem	!	!	!LO:DY:rj
4GG 4GGG	4gg 4dd 4b 4g	.	fz
*Xped	*	*	*
=63	=63	=63	=63
*	*^	*	*
*ped	*	*	*	*
8.cL 8.A 8.D	8.ddL 8.a 8.f#X 8.d	4ryy	.	.
16cJk 16A 16D	16ddJk 16a 16f# 16d	.	.	.
*Xped	*	*	*	*
.	.	.	.	.
4B 4G	4g/	4ryy	.	.
*ped	*	*	*	*
!	!	!	!	!LO:DY:rj
4GG 4GGG	8bL 8g 8d	4ryy	.	fz
*Xped	*	*	*	*
.	8ccJ 8a	.	.	.
*	*v	*v	*	*
=64	=64	=64	=64
*ped	*	*	*
8.cL 8.A 8.D	8.ddL 8.f#X 8.d	.	.
*Xped	*	*	*
16cJk 16A 16D	16ddJk 16f# 16d	.	.
4B 4G	4b 4g	.	.
*ped	*	*	*
4GG 4GGG	4gg 4dd 4b 4g	.	fz
*Xped	*	*	*
=65	=65	=65	=65
*	*^	*	*
*ped	*	*	*	*
8.cL 8.A 8.D	8.ddL 8.f#X 8.d	4ryy	.	.
16cJk 16A 16D	16ddJk 16f# 16d	.	.	.
*Xped	*	*	*	*
.	.	.	.	.
4B 4G	4dd 4b 4g 4d	4ryy	.	.
.	8qee/	.	.	.
4d 4c 4F#X	8ddL	4a^<	.	p
.	8cc#XJ	.	.	.
=66	=66	=66	=66	=66
4d 4B 4Fn	8eeL	4a-X	.	.
.	8ddJ	.	.	.
4d 4B 4F	4g^<	4ryy	.	.
4d 4B 4G 4F	(>8anL/	4ryy	.	.
.	8bJ	.	.	.
*	*v	*v	*	*
=67	=67	=67	=67
*ped	*	*	*
4c 4G 4E	8ccL	.	<
.	8dd	.	.
4e 4G 4C	8ee	.	.
.	8ff	.	.
4r	8gg	.	.
*Xped	*	*	*
.	8gg#XJ)	.	[
!!LO:LB:g=original
=68	=68	=68	=68
*ped	*	*	*
4GG	8aaL	.	.
.	8aaJ	.	.
.	8qbb/	.	.
4f 4B 4G	4aa^<	.	.
4f 4B 4G	(>8ggL	.	.
*Xped	*	*	*
.	8ddJ)	.	.
=69	=69	=69	=69
*^	*	*	*
2C/	4ryy	8ffL	.	.
.	.	8ffJ	.	.
.	.	8qgg/	.	.
.	4f 4A\	4ff^<	.	.
4ryy	4e 4G\	4ee	.	.
*v	*v	*	*	*
=70	=70	=70	=70
.	8qa/	.	.
4d 4A 4F#X	8ddL	.	.
.	8ddJ	.	.
.	8qee/	.	.
*ped	*	*	*
4d 4B 4G 4Fn	4dd^<	.	.
4d 4B 4G 4F	(>8gL>\	.	.
*Xped	*	*	*
.	8bJ	.	.
=71	=71	=71	=71
*ped	*	*	*
4c 4G 4E	8ccL	.	.
.	8dd	.	.
4e 4G 4C	8ee	.	.
.	8ff	.	.
4r	8gg	.	.
*Xped	*	*	*
.	8cccJ)	.	.
=72	=72	=72	=72
*^	*	*	*
*ped	*	*	*	*
2GG	4ryy	(>8.bbL	.	.
.	.	16aaT>k	.	.
.	4f 4d 4G	8ff	.	.
.	.	8dd	.	.
4ryy	4f 4d 4G	8b	.	.
*Xped	*	*	*	*
.	.	8gJ)	.	.
*v	*v	*	*	*
=73	=73	=73	=73
*	*^	*	*
*ped	*	*	*	*
4C	(>12ccL	8eL	.	.
.	12dd	.	.	.
.	.	8gJ	.	.
.	12eeJ)	.	.	.
4c 4G 4C	4cc 4e	4ryy	.	.
*Xped	*	*	*	*
4r	4r	4ryy	.	.
*	*v	*v	*	*
==	==	==	==
*-	*-	*-	*-
!!title: @{OTL}; @{OPS} @{ONM} publisher: @{PPR}
!!!RDF**kern: > = above
!!!RDF**kern: < = below
!!!RDF**kern: N = linked
!!!RDF**dynam: > = "dim." fontstyle="bold-italic"
!!!RDF**dynam: < = "cres." fontstyle="bold-italic"
!!!ENC: Emilia Ziętek
!!!END: 2020-02-28
!!!EED: Antoni Szymański
!!!EST: revision finished 2020-03-14
